X:1
T:Title
%%score 1 { 2 | 3 }
L:1/8
Q:1/4=107
M:2/4
K:G
V:1 treble nm="Strings 1, Soprano"
V:2 bass nm="Choir Pad, Asmara, 76.76.77.76"
V:3 bass 
V:1
 [DG]2 D2 | [DG]2 [DFA]2 | [DGB][FA] [DGB][Ac] | [DGBd]2 z2 | [DBd]2 [DGB][Bd] | %5
w: By~Francis~H.~Nash,~1865 *|||||
 [Ece][Bd] [EAc][GB] | [DFA]2 [DFA]2 | z4 | [DG]2 D2 | [DG]2 [DFA]2 | [DGB][FA] [DGB][Ac] | %11
w: ||||||
 [DBd]2 z2 | [Ece][Bd] [EAc][GB] | [DFA]2 [CFd]2 | G2 G2 | z4 | [FA][GB] [FA][EG] | %17
w: ||||||
 [DF][EG] [FA]2 | [GB][FA] G[GB] | [FA]4 | [FA][GB] [FA][EG] | [DF][EG] [FA][GB] | %22
w: |||||
 [FA][EG] [DF][^CE] | D4 | [DG]2 D2 | [DG]2 [DFA]2 | [DGB][FA] [DGB][Ac] | [DGBd]4 | %28
w: ||||||
 [Ece][Bd] [EAc][GB] | [DFA]2 [CFd]2 | G2 G2- | G4- | G2 z2 |] %33
w: |||||
V:2
 B,2 B,2 | B,,2 D,2 | G,2 G,2 | G,2 z2 | G,2 G,2 | C,2 C,2 | D,2 D,2 | z4 | B,2 B,2 | B,,2 D,2 | %10
 G,2 G,2 | G,2 z2 | C,2 C,2 | D,2 D,2 | B,2 B,2 | z4 | D,2 D,2 | D,2 D,2 | G,2 G,2 | D,4 | %20
 D,2 D,2 | D,2 D,2 | A,,2 A,,2 | D,4 | B,2 B,2 | B,,2 D,2 | G,2 G,2 | B,4 | C,2 C,2 | D,2 D,2 | %30
 B,2 B,2- | B,4- | B,2 z2 |] %33
V:3
 [G,,G,]2 [G,,G,]2 | z4 | z4 | z4 | z4 | z4 | z4 | z4 | [G,,G,]2 [G,,G,]2 | z4 | z4 | z4 | z4 | %13
 z4 | [G,,G,]2 [G,,G,]2 | z4 | z4 | z4 | z4 | z4 | z4 | z4 | z4 | z4 | [G,,G,]2 [G,,G,]2 | z4 | %26
 z4 | G,4 | z4 | z4 | [G,,G,]2 [G,,G,]2- | [G,,G,]4- | [G,,G,]2 z2 |] %33

